assets/img/braze_icons/tv-01.svg

<svg fill="none" height="24" viewBox="0 0 24 24" width="24" xmlns="http://www.w3.org/2000/svg"><path clip-rule="evenodd" d="m17.2413 2h-10.4826c-.80496-.00001-1.46933-.00002-2.01052.04419-.5621.04593-1.07881.14449-1.56414.39179-.75265.38349-1.36457.99541-1.74806 1.74806-.2473.48533-.34586 1.00204-.39179 1.56414-.044212.54119-.044202 1.20554-.04419 2.01051v4.48261c-.000012.805-.000022 1.4693.04419 2.0105.04593.5621.14449 1.0788.39179 1.5642.38349.7526.99541 1.3645 1.74806 1.748.48533.2473 1.00204.3459 1.56414.3918.08115.0066.16507.0123.25183.0171l-.00001 1.459c-.00003.2524-.00006.4982.01695.7063.01868.2286.06275.4984.20104.7698.19175.3763.49771.6823.87403.874.27143.1383.54116.1824.76976.2011.20815.017.45392.0169.7063.0169h8.86382c.2524 0 .4982.0001.7063-.0169.2286-.0187.4984-.0628.7698-.2011.3763-.1917.6823-.4977.874-.874.1383-.2714.1824-.5412.2011-.7698.017-.2081.0169-.4539.0169-.7063v-1.459c.0868-.0048.1707-.0105.2518-.0171.5621-.0459 1.0788-.1445 1.5642-.3918.7526-.3835 1.3645-.9954 1.748-1.748.2473-.4854.3459-1.0021.3918-1.5642.0442-.5412.0442-1.2055.0442-2.0105v-4.48262c0-.80496 0-1.46932-.0442-2.0105-.0459-.5621-.1445-1.07881-.3918-1.56414-.3835-.75265-.9954-1.36457-1.748-1.74806-.4854-.2473-1.0021-.34586-1.5642-.39179-.5412-.04421-1.2055-.0442-2.0105-.04419zm-.2413 16h-9.99999v1.4c0 .2965.00077.4588.0103.5754l.00114.0132.01319.0011c.11658.0095.27884.0103.57537.0103h8.79999c.2965 0 .4588-.0008.5754-.0103l.0132-.0011.0011-.0132c.0095-.1166.0103-.2789.0103-.5754z" fill="#801ed7" fill-rule="evenodd"/></svg>

<svg width="24" height="24" viewBox="0 0 24 24" fill="none" xmlns="http://www.w3.org/2000/svg">
<path fill-rule="evenodd" clip-rule="evenodd" d="M17.2413 2H6.7587C5.95374 1.99999 5.28937 1.99998 4.74818 2.04419C4.18608 2.09012 3.66937 2.18868 3.18404 2.43598C2.43139 2.81947 1.81947 3.43139 1.43598 4.18404C1.18868 4.66937 1.09012 5.18608 1.04419 5.74818C0.999978 6.28937 0.999988 6.95372 1 7.75869V12.2413C0.999988 13.0463 0.999978 13.7106 1.04419 14.2518C1.09012 14.8139 1.18868 15.3306 1.43598 15.816C1.81947 16.5686 2.43139 17.1805 3.18404 17.564C3.66937 17.8113 4.18608 17.9099 4.74818 17.9558C4.82933 17.9624 4.91325 17.9681 5.00001 17.9729L5 19.4319C4.99997 19.6843 4.99994 19.9301 5.01695 20.1382C5.03563 20.3668 5.0797 20.6366 5.21799 20.908C5.40974 21.2843 5.7157 21.5903 6.09202 21.782C6.36345 21.9203 6.63318 21.9644 6.86178 21.9831C7.06993 22.0001 7.3157 22 7.56808 22H16.4319C16.6843 22 16.9301 22.0001 17.1382 21.9831C17.3668 21.9644 17.6366 21.9203 17.908 21.782C18.2843 21.5903 18.5903 21.2843 18.782 20.908C18.9203 20.6366 18.9644 20.3668 18.9831 20.1382C19.0001 19.9301 19 19.6843 19 19.4319L19 17.9729C19.0868 17.9681 19.1707 17.9624 19.2518 17.9558C19.8139 17.9099 20.3306 17.8113 20.816 17.564C21.5686 17.1805 22.1805 16.5686 22.564 15.816C22.8113 15.3306 22.9099 14.8139 22.9558 14.2518C23 13.7106 23 13.0463 23 12.2413V7.75868C23 6.95372 23 6.28936 22.9558 5.74818C22.9099 5.18608 22.8113 4.66937 22.564 4.18404C22.1805 3.43139 21.5686 2.81947 20.816 2.43598C20.3306 2.18868 19.8139 2.09012 19.2518 2.04419C18.7106 1.99998 18.0463 1.99999 17.2413 2ZM17 18H7.00001V19.4C7.00001 19.6965 7.00078 19.8588 7.01031 19.9754L7.01145 19.9886L7.02464 19.9897C7.14122 19.9992 7.30348 20 7.60001 20H16.4C16.6965 20 16.8588 19.9992 16.9754 19.9897L16.9886 19.9886L16.9897 19.9754C16.9992 19.8588 17 19.6965 17 19.4V18Z" fill="#801ED7"/>
</svg>
